X:32
T:The Grey Buck (x3)
R:Jig
M:6/8
Q:3/8=116
K:Amix
| B3 B3 | B3 B2d |
%
|: e2e edB | dBA A2g | dBd dBA | BAG G2g |
   fed efg | a2a e2a | gfe dBd |1 eAA ABd :|2 eAA Ace |
|: a2a efg | a2a e2f | g2g def | g2g d2g |
   fed efg | a2a e2a | gfe dBd |1 eAA Ace :|2 eAA ABd ||
%
|: e2e edB | dBA A2g | dBd dBA | BAG G2g |
   fed efg | a2a e2a | gfe dBd |1 eAA ABd :|2 eAA Ace |
|: a2a efg | a2a e2f | g2g def | g2g d2g |
   fed efg | a2a e2a | gfe dBd |1 eAA Ace :|2 eAA ABd ||
%
|: e2e edB | dBA A2g | dBd dBA | BAG G2g |
   fed efg | a2a e2a | gfe dBd |1 eAA ABd :|2 eAA Ace |
|: a2a efg | a2a e2f | g2g def | g2g d2g |
   fed efg | a2a e2a | gfe dBd |1 eAA Ace :|2 eAA ABd ||
%

